humanity-icon-theme/Humanity/actions/48/folder-new.svg

<?xml version="1.0" encoding="UTF-8" standalone="no"?>
<!-- Created with Inkscape (http://www.inkscape.org/) -->
<svg
   xmlns:svg="http://www.w3.org/2000/svg"
   xmlns="http://www.w3.org/2000/svg"
   xmlns:xlink="http://www.w3.org/1999/xlink"
   version="1.0"
   width="48"
   height="48"
   id="svg3396">
  <defs
     id="defs3398">
    <linearGradient
       id="linearGradient2091">
      <stop
         id="stop2093"
         style="stop-color:#000000;stop-opacity:1"
         offset="0" />
      <stop
         id="stop2095"
         style="stop-color:#000000;stop-opacity:0"
         offset="1" />
    </linearGradient>
    <radialGradient
       cx="23.070683"
       cy="35.127438"
       r="10.31934"
       fx="23.070683"
       fy="35.127438"
       id="radialGradient2661"
       xlink:href="#linearGradient2091"
       gradientUnits="userSpaceOnUse"
       gradientTransform="matrix(1.0638029,1.37236e-2,-9.55296e-3,0.2316828,11.922927,37.073472)" />
    <linearGradient
       id="linearGradient3497">
      <stop
         id="stop3499"
         style="stop-color:#699536;stop-opacity:1"
         offset="0" />
      <stop
         id="stop3501"
         style="stop-color:#587d2d;stop-opacity:1"
         offset="1" />
    </linearGradient>
    <linearGradient
       x1="28.857143"
       y1="26"
       x2="28.857143"
       y2="46.073334"
       id="linearGradient2658"
       xlink:href="#linearGradient3497"
       gradientUnits="userSpaceOnUse" />
    <linearGradient
       id="linearGradient2264">
      <stop
         id="stop2266"
         style="stop-color:#d7e866;stop-opacity:1"
         offset="0" />
      <stop
         id="stop2268"
         style="stop-color:#8cab2a;stop-opacity:1"
         offset="1" />
    </linearGradient>
    <linearGradient
       x1="24.103895"
       y1="15.168831"
       x2="24.103895"
       y2="32.485161"
       id="linearGradient2656"
       xlink:href="#linearGradient2264"
       gradientUnits="userSpaceOnUse"
       gradientTransform="matrix(0.8988874,0,0,0.8934652,14.536296,15.434027)" />
    <linearGradient
       id="linearGradient4222">
      <stop
         id="stop4224"
         style="stop-color:#ffffff;stop-opacity:1"
         offset="0" />
      <stop
         id="stop4226"
         style="stop-color:#ffffff;stop-opacity:0"
         offset="1" />
    </linearGradient>
    <linearGradient
       x1="24.138529"
       y1="6.5316639"
       x2="24.138529"
       y2="47.272728"
       id="linearGradient2653"
       xlink:href="#linearGradient4222"
       gradientUnits="userSpaceOnUse"
       gradientTransform="matrix(0.5399382,0,0,0.5366811,23.151077,23.493801)" />
    <linearGradient
       id="linearGradient3484">
      <stop
         id="stop3486"
         style="stop-color:#bdbdbd;stop-opacity:1"
         offset="0" />
      <stop
         id="stop3488"
         style="stop-color:#d0d0d0;stop-opacity:1"
         offset="1" />
    </linearGradient>
    <radialGradient
       cx="3"
       cy="5.01718"
       r="21"
       fx="3"
       fy="5.01718"
       id="radialGradient2455"
       xlink:href="#linearGradient3484"
       gradientUnits="userSpaceOnUse"
       gradientTransform="matrix(-1.274898e-8,1.7142916,-2.159331,-1.4599595e-8,12.809361,2.8570011)" />
    <linearGradient
       id="linearGradient6404">
      <stop
         id="stop6406"
         style="stop-color:#f9f9f9;stop-opacity:1"
         offset="0" />
      <stop
         id="stop6408"
         style="stop-color:#c9c9c9;stop-opacity:1"
         offset="1" />
    </linearGradient>
    <linearGradient
       x1="62.988873"
       y1="13.182598"
       x2="62.988873"
       y2="16.19013"
       id="linearGradient2453"
       xlink:href="#linearGradient6404"
       gradientUnits="userSpaceOnUse"
       gradientTransform="translate(-50.940898,0)" />
    <linearGradient
       id="linearGradient5060-820">
      <stop
         id="stop2681"
         style="stop-color:#000000;stop-opacity:1"
         offset="0" />
      <stop
         id="stop2683"
         style="stop-color:#000000;stop-opacity:0"
         offset="1" />
    </linearGradient>
    <radialGradient
       cx="605.71429"
       cy="486.64789"
       r="117.14286"
       fx="605.71429"
       fy="486.64789"
       id="radialGradient7600-312"
       xlink:href="#linearGradient5060-820"
       gradientUnits="userSpaceOnUse"
       gradientTransform="matrix(-3.212956e-2,0,0,3.705882e-2,23.363215,25.412461)" />
    <linearGradient
       id="linearGradient5060-179">
      <stop
         id="stop2675"
         style="stop-color:#000000;stop-opacity:1"
         offset="0" />
      <stop
         id="stop2677"
         style="stop-color:#000000;stop-opacity:0"
         offset="1" />
    </linearGradient>
    <radialGradient
       cx="605.71429"
       cy="486.64789"
       r="117.14286"
       fx="605.71429"
       fy="486.64789"
       id="radialGradient7598-526"
       xlink:href="#linearGradient5060-179"
       gradientUnits="userSpaceOnUse"
       gradientTransform="matrix(3.212956e-2,0,0,3.705882e-2,24.636785,25.412461)" />
    <linearGradient
       id="linearGradient5048-585">
      <stop
         id="stop2667"
         style="stop-color:#000000;stop-opacity:0"
         offset="0" />
      <stop
         id="stop2669"
         style="stop-color:#000000;stop-opacity:1"
         offset="0.5" />
      <stop
         id="stop2671"
         style="stop-color:#000000;stop-opacity:0"
         offset="1" />
    </linearGradient>
    <linearGradient
       x1="302.85715"
       y1="366.64789"
       x2="302.85715"
       y2="609.50507"
       id="linearGradient7596-975"
       xlink:href="#linearGradient5048-585"
       gradientUnits="userSpaceOnUse"
       gradientTransform="matrix(8.284024e-2,0,0,3.705882e-2,-5.9408285,25.412461)" />
    <linearGradient
       id="linearGradient3390-178-986-453">
      <stop
         id="stop3624"
         style="stop-color:#bb2b12;stop-opacity:1"
         offset="0" />
      <stop
         id="stop3626"
         style="stop-color:#cd7233;stop-opacity:1"
         offset="1" />
    </linearGradient>
    <linearGradient
       x1="82.453476"
       y1="45.114193"
       x2="65.340263"
       y2="15.943953"
       id="linearGradient2446"
       xlink:href="#linearGradient3390-178-986-453"
       gradientUnits="userSpaceOnUse"
       gradientTransform="translate(-53.765393,-0.1141929)" />
    <linearGradient
       id="linearGradient7012-661-145-733-759-865-745-661-970-94">
      <stop
         id="stop3618"
         style="stop-color:#f0c178;stop-opacity:1"
         offset="0" />
      <stop
         id="stop3270"
         style="stop-color:#e18941;stop-opacity:1"
         offset="0.5" />
      <stop
         id="stop3620"
         style="stop-color:#ec4f18;stop-opacity:1"
         offset="1" />
    </linearGradient>
    <radialGradient
       cx="63.969177"
       cy="14.113381"
       r="23.097054"
       fx="63.969177"
       fy="14.113381"
       id="radialGradient2444"
       xlink:href="#linearGradient7012-661-145-733-759-865-745-661-970-94"
       gradientUnits="userSpaceOnUse"
       gradientTransform="matrix(1.5646925,-9.5143002e-8,6.1772287e-8,1.015888,-86.212573,8.1461173)" />
    <linearGradient
       id="linearGradient6129-963-697-142-998-580-273">
      <stop
         id="stop2661"
         style="stop-color:#0a0a0a;stop-opacity:0.498"
         offset="0" />
      <stop
         id="stop2663"
         style="stop-color:#0a0a0a;stop-opacity:0"
         offset="1" />
    </linearGradient>
    <linearGradient
       x1="22.934725"
       y1="49.629246"
       x2="22.809399"
       y2="36.657963"
       id="linearGradient2441"
       xlink:href="#linearGradient6129-963-697-142-998-580-273"
       gradientUnits="userSpaceOnUse"
       gradientTransform="matrix(1.1446925,0,0,0.9977536,-3.4661413,1.0988425)" />
    <linearGradient
       id="linearGradient6087-437-184-795-110-662-495">
      <stop
         id="stop2693"
         style="stop-color:#ffffff;stop-opacity:0.40000001"
         offset="0" />
      <stop
         id="stop2695"
         style="stop-color:#ffffff;stop-opacity:0"
         offset="1" />
    </linearGradient>
    <radialGradient
       cx="7.2646537"
       cy="8.3021259"
       r="20.979567"
       fx="7.2646537"
       fy="8.3021259"
       id="radialGradient2438"
       xlink:href="#linearGradient6087-437-184-795-110-662-495"
       gradientUnits="userSpaceOnUse"
       gradientTransform="matrix(0,1.2079744,-1.6271642,0,26.371748,8.2664685)" />
    <linearGradient
       id="linearGradient8265-821-176-38-919-66-249">
      <stop
         id="stop2687"
         style="stop-color:#ffffff;stop-opacity:0.27450982"
         offset="0" />
      <stop
         id="stop2689"
         style="stop-color:#ffffff;stop-opacity:0.07843138"
         offset="1" />
    </linearGradient>
    <linearGradient
       x1="11.566265"
       y1="22.292103"
       x2="15.214532"
       y2="33.95525"
       id="linearGradient2435"
       xlink:href="#linearGradient8265-821-176-38-919-66-249"
       gradientUnits="userSpaceOnUse" />
  </defs>
  <g
     id="layer1">
    <path
       d="M 3.5062498,8.4999995 C 2.8159788,8.5076695 2.505808,8.8421456 2.505808,9.4999995 C 2.505808,15.014454 2.532086,19.239576 2.499998,24.25043 C 3.9354686,24.25043 45.499996,20.550698 45.499996,18.958166 L 45.499996,12.506647 C 45.499996,11.848794 44.945792,11.498976 44.255517,11.506647 L 23.999998,11.506647 C 21.952515,11.506647 20.501107,8.4999995 18.999998,8.4999995 L 3.5062477,8.4999995 L 3.5062498,8.4999995 z"
       id="path3468"
       style="fill:url(#linearGradient2453);fill-opacity:1;stroke:url(#radialGradient2455);stroke-width:1.00000012;stroke-linecap:round;stroke-linejoin:round;stroke-miterlimit:4;stroke-dasharray:none;stroke-opacity:1;display:inline" />
    <g
       transform="matrix(0.9583333,0,0,0.6666667,1.0000008,15)"
       id="g7591"
       style="opacity:0.4">
      <rect
         width="40"
         height="9"
         x="4"
         y="39"
         id="rect4173"
         style="fill:url(#linearGradient7596-975);fill-opacity:1;fill-rule:nonzero;stroke:none;stroke-width:1;marker:none;visibility:visible;display:inline;overflow:visible" />
      <path
         d="M 44,39.00031 C 44,39.00031 44,47.999814 44,47.999814 C 45.654593,48.016754 48.000001,45.983481 48,43.499483 C 48,41.015484 46.153598,39.00031 44,39.00031 z"
         id="path5058"
         style="fill:url(#radialGradient7598-526);fill-opacity:1;fill-rule:nonzero;stroke:none;stroke-width:1;marker:none;visibility:visible;display:inline;overflow:visible" />
      <path
         d="M 4,39.00031 C 4,39.00031 4,47.999814 4,47.999814 C 2.3454068,48.016755 0,45.983481 0,43.499483 C 0,41.015484 1.8464008,39.00031 4,39.00031 z"
         id="path5018"
         style="fill:url(#radialGradient7600-312);fill-opacity:1;fill-rule:nonzero;stroke:none;stroke-width:1;marker:none;visibility:visible;display:inline;overflow:visible" />
    </g>
    <path
       d="M 2.1628556,16.525193 C 1.0901486,16.648887 1.6630856,17.927311 1.5775586,18.646205 C 1.9700906,27.116295 2.3664906,35.41566 2.7566056,43.885807 C 3.0984416,44.8515 4.3510406,44.356967 5.1447226,44.479557 C 18.338267,44.479557 31.531812,44.479557 44.725358,44.479557 C 45.814738,44.372906 45.361818,43.071876 45.515058,42.327295 C 45.907598,33.857205 46.303998,25.55784 46.694108,17.087693 C 46.442938,16.133404 45.174598,16.663679 44.430985,16.525193 C 30.341611,16.525193 16.252234,16.525193 2.1628556,16.525193 L 2.1628556,16.525193 z"
       id="path3388"
       style="fill:url(#radialGradient2444);fill-opacity:1;stroke:url(#linearGradient2446);stroke-width:1;stroke-linecap:round;stroke-linejoin:round;stroke-miterlimit:4;stroke-dashoffset:0;stroke-opacity:1" />
    <path
       d="M 2.0582428,16.065146 L 45.954718,16.065549 C 46.588878,16.065549 46.999873,16.51016 46.999873,17.062916 L 45.755637,44.002247 C 45.755637,44.555002 45.245105,45 44.610947,45 L 3.4020122,45 C 2.7678523,45 2.2573195,44.555002 2.2573195,44.002247 L 1.0130886,17.0629 C 1.0130886,16.510143 1.4240829,16.065146 2.0582428,16.065146 L 2.0582428,16.065146 z"
       id="path6127"
       style="opacity:0.4;fill:url(#linearGradient2441);fill-opacity:1;stroke:none" />
    <path
       d="M 46.5,17.5 C 32.96875,17.5 16.03125,17.5 2.5,17.5 C 2.8854167,25.677083 3.2708333,33.854167 3.65625,42.03125"
       id="path2435"
       style="fill:none;stroke:url(#radialGradient2438);stroke-width:0.99999976;stroke-linecap:round;stroke-linejoin:round;stroke-miterlimit:4;stroke-dasharray:none;stroke-opacity:1" />
    <path
       d="M 45.75,16 C 31.20041,16.073348 16.645416,15.978851 2.09375,16 C 0.28698984,16.411117 1.2593433,18.46661 1.1213236,19.771525 C 1.3433531,23.934872 1.4443903,28.116464 1.7417851,32.268407 C 16.742298,29.905609 31.66833,27.661153 46.40625,25.21875 C 47.187241,22.632172 47.193628,19.548156 47.063607,16.789526 C 46.834471,16.284964 46.276599,15.988682 45.75,16 z"
       id="path3455"
       style="fill:url(#linearGradient2435);fill-opacity:1;stroke:none" />
    <rect
       width="13"
       height="2"
       rx="1"
       ry="1"
       x="5"
       y="10"
       id="rect3562"
       style="fill:#eda374;fill-opacity:1;fill-rule:nonzero;stroke:none;stroke-width:1;marker:none;visibility:visible;display:block;overflow:visible;enable-background:accumulate" />
  </g>
  <path
     d="M 48,45.482937 C 48,46.873072 42.627417,47.999999 36,47.999999 C 29.372583,47.999999 24,46.873072 24,45.482937 C 24,44.092801 29.372583,42.965874 36,42.965874 C 42.627417,42.965874 48,44.092801 48,45.482937 z"
     id="path2447"
     style="opacity:0.3;fill:url(#radialGradient2661);fill-opacity:1;stroke:none;display:inline" />
  <path
     d="M 32.56638,32.494819 L 32.56638,26.5 L 39.5,26.5 L 39.5,32.494819 L 45.5,32.494819 L 45.5,39.5 L 39.5,39.5 L 39.5,45.5 L 32.560272,45.5 L 32.532402,39.5 L 26.499999,39.5 L 26.499999,32.494819 L 32.566379,32.494819 L 32.56638,32.494819 z"
     id="path2262"
     style="fill:url(#linearGradient2656);fill-opacity:1;fill-rule:evenodd;stroke:url(#linearGradient2658);stroke-width:1;stroke-linecap:butt;stroke-linejoin:round;stroke-miterlimit:4;stroke-dasharray:none;stroke-opacity:1;display:inline" />
  <path
     d="M 33.5,33.494819 L 33.5,27.5 L 38.5,27.5 L 38.5,33.494819 L 44.5,33.494819 L 44.5,38.5 L 38.5,38.5 L 38.5,44.5 L 33.5,44.5 L 33.5,38.5 L 27.5,38.5 L 27.5,33.494819 L 33.5,33.494819 z"
     id="path2272"
     style="opacity:0.4;fill:none;stroke:url(#linearGradient2653);stroke-width:1;stroke-linecap:butt;stroke-linejoin:miter;stroke-miterlimit:4;stroke-dasharray:none;stroke-opacity:1;display:inline" />
</svg>

<?xml version="1.0" encoding="UTF-8" standalone="no"?>
<!-- Created with Inkscape (http://www.inkscape.org/) -->
<svg id="svg3396" xmlns="http://www.w3.org/2000/svg" height="48" width="48" version="1.0" xmlns:xlink="http://www.w3.org/1999/xlink">
 <defs id="defs3398">
  <radialGradient id="radialGradient2661" gradientUnits="userSpaceOnUse" cy="35.127" cx="23.071" gradientTransform="matrix(1.0638 .013724 -.0095530 .23168 11.923 37.073)" r="10.319">
   <stop id="stop2093" offset="0"/>
   <stop id="stop2095" style="stop-opacity:0" offset="1"/>
  </radialGradient>
  <linearGradient id="linearGradient2658" y2="46.073" gradientUnits="userSpaceOnUse" x2="28.857" y1="26" x1="28.857">
   <stop id="stop3499" style="stop-color:#699536" offset="0"/>
   <stop id="stop3501" style="stop-color:#587d2d" offset="1"/>
  </linearGradient>
  <linearGradient id="linearGradient2656" y2="32.485" gradientUnits="userSpaceOnUse" x2="24.104" gradientTransform="matrix(.89889 0 0 .89347 14.536 15.434)" y1="15.169" x1="24.104">
   <stop id="stop2266" style="stop-color:#d7e866" offset="0"/>
   <stop id="stop2268" style="stop-color:#8cab2a" offset="1"/>
  </linearGradient>
  <linearGradient id="linearGradient2653" y2="47.273" gradientUnits="userSpaceOnUse" x2="24.139" gradientTransform="matrix(.53994 0 0 .53668 23.151 23.494)" y1="6.5317" x1="24.139">
   <stop id="stop4224" style="stop-color:#fff" offset="0"/>
   <stop id="stop4226" style="stop-color:#fff;stop-opacity:0" offset="1"/>
  </linearGradient>
  <radialGradient id="radialGradient2455" gradientUnits="userSpaceOnUse" cy="5.0172" cx="3" gradientTransform="matrix(-1.2749e-8 1.7143 -2.1593 -1.46e-8 12.809 2.857)" r="21">
   <stop id="stop3486" style="stop-color:#bdbdbd" offset="0"/>
   <stop id="stop3488" style="stop-color:#d0d0d0" offset="1"/>
  </radialGradient>
  <linearGradient id="linearGradient2453" y2="16.19" gradientUnits="userSpaceOnUse" x2="62.989" gradientTransform="translate(-50.941)" y1="13.183" x1="62.989">
   <stop id="stop6406" style="stop-color:#f9f9f9" offset="0"/>
   <stop id="stop6408" style="stop-color:#c9c9c9" offset="1"/>
  </linearGradient>
  <radialGradient id="radialGradient7600-312" gradientUnits="userSpaceOnUse" cy="486.65" cx="605.71" gradientTransform="matrix(-.032130 0 0 .037059 23.363 25.412)" r="117.14">
   <stop id="stop2681" offset="0"/>
   <stop id="stop2683" style="stop-opacity:0" offset="1"/>
  </radialGradient>
  <radialGradient id="radialGradient7598-526" gradientUnits="userSpaceOnUse" cy="486.65" cx="605.71" gradientTransform="matrix(.032130 0 0 .037059 24.637 25.412)" r="117.14">
   <stop id="stop2675" offset="0"/>
   <stop id="stop2677" style="stop-opacity:0" offset="1"/>
  </radialGradient>
  <linearGradient id="linearGradient7596-975" y2="609.51" gradientUnits="userSpaceOnUse" x2="302.86" gradientTransform="matrix(.082840 0 0 .037059 -5.9408 25.412)" y1="366.65" x1="302.86">
   <stop id="stop2667" style="stop-opacity:0" offset="0"/>
   <stop id="stop2669" offset=".5"/>
   <stop id="stop2671" style="stop-opacity:0" offset="1"/>
  </linearGradient>
  <linearGradient id="linearGradient2446" y2="15.944" gradientUnits="userSpaceOnUse" x2="65.34" gradientTransform="translate(-53.765 -.11419)" y1="45.114" x1="82.453">
   <stop id="stop3624" style="stop-color:#bb2b12" offset="0"/>
   <stop id="stop3626" style="stop-color:#cd7233" offset="1"/>
  </linearGradient>
  <radialGradient id="radialGradient2444" gradientUnits="userSpaceOnUse" cy="14.113" cx="63.969" gradientTransform="matrix(1.5647 -9.5143e-8 6.1772e-8 1.0159 -86.213 8.1461)" r="23.097">
   <stop id="stop3618" style="stop-color:#f0c178" offset="0"/>
   <stop id="stop3270" style="stop-color:#e18941" offset=".5"/>
   <stop id="stop3620" style="stop-color:#ec4f18" offset="1"/>
  </radialGradient>
  <linearGradient id="linearGradient2441" y2="36.658" gradientUnits="userSpaceOnUse" x2="22.809" gradientTransform="matrix(1.1447 0 0 .99775 -3.4661 1.0988)" y1="49.629" x1="22.935">
   <stop id="stop2661" style="stop-color:#0a0a0a;stop-opacity:.498" offset="0"/>
   <stop id="stop2663" style="stop-color:#0a0a0a;stop-opacity:0" offset="1"/>
  </linearGradient>
  <radialGradient id="radialGradient2438" gradientUnits="userSpaceOnUse" cy="8.3021" cx="7.2647" gradientTransform="matrix(0 1.208 -1.6272 0 26.372 8.2665)" r="20.98">
   <stop id="stop2693" style="stop-color:#fff;stop-opacity:0.4" offset="0"/>
   <stop id="stop2695" style="stop-color:#fff;stop-opacity:0" offset="1"/>
  </radialGradient>
  <linearGradient id="linearGradient2435" y2="33.955" gradientUnits="userSpaceOnUse" x2="15.215" y1="22.292" x1="11.566">
   <stop id="stop2687" style="stop-color:#fff;stop-opacity:.27451" offset="0"/>
   <stop id="stop2689" style="stop-color:#fff;stop-opacity:.078431" offset="1"/>
  </linearGradient>
 </defs>
 <g id="layer1">
  <path id="path3468" style="stroke-linejoin:round;stroke:url(#radialGradient2455);stroke-linecap:round;fill:url(#linearGradient2453)" d="m3.5062 8.5c-0.6902 0.0077-1.0004 0.3421-1.0004 1 0 5.514 0.0263 9.74-0.0058 14.75 1.4355 0 43-3.699 43-5.292v-6.451c0-0.658-0.554-1.008-1.244-1h-20.256c-2.047 0-3.499-3.007-5-3.007h-15.494 0.0002z"/>
  <g id="g7591" style="opacity:.4" transform="matrix(.95833 0 0 .66667 1 15)">
   <rect id="rect4173" style="fill:url(#linearGradient7596-975)" height="9" width="40" y="39" x="4"/>
   <path id="path5058" style="fill:url(#radialGradient7598-526)" d="m44 39v9c1.655 0.017 4-2.017 4-4.501s-1.846-4.499-4-4.499z"/>
   <path id="path5018" style="fill:url(#radialGradient7600-312)" d="m4 39v9c-1.6546 0.017-4-2.017-4-4.501s1.8464-4.499 4-4.499z"/>
  </g>
  <path id="path3388" style="stroke-linejoin:round;stroke:url(#linearGradient2446);stroke-linecap:round;fill:url(#radialGradient2444)" d="m2.1629 16.525c-1.0728 0.124-0.4998 1.402-0.5853 2.121 0.3925 8.47 0.7889 16.77 1.179 25.24 0.3418 0.966 1.5944 0.471 2.3881 0.594h39.58c1.09-0.107 0.637-1.408 0.79-2.153 0.393-8.47 0.789-16.769 1.179-25.239-0.251-0.955-1.519-0.424-2.263-0.563h-42.268-0.0001z"/>
  <path id="path6127" style="opacity:.4;fill:url(#linearGradient2441)" d="m2.0582 16.065l43.897 0.001c0.634 0 1.045 0.444 1.045 0.997l-1.244 26.939c0 0.553-0.511 0.998-1.145 0.998h-41.209c-0.6341 0-1.1447-0.445-1.1447-0.998l-1.2442-26.939c0-0.553 0.411-0.998 1.0451-0.998z"/>
  <path id="path2435" style="stroke-linejoin:round;stroke:url(#radialGradient2438);stroke-linecap:round;fill:none" d="m46.5 17.5h-44l1.1562 24.531"/>
  <path id="path3455" style="fill:url(#linearGradient2435)" d="m45.75 16c-14.55 0.073-29.105-0.021-43.656 0-1.807 0.411-0.8347 2.467-0.9727 3.772 0.2221 4.163 0.3231 8.344 0.6205 12.496 15-2.362 29.926-4.607 44.664-7.049 0.781-2.587 0.788-5.671 0.658-8.429-0.23-0.505-0.787-0.801-1.314-0.79z"/>
  <rect id="rect3562" style="display:block;fill:#eda374" rx="1" ry="1" height="2" width="13" y="10" x="5"/>
 </g>
 <path id="path2447" style="opacity:.3;fill:url(#radialGradient2661)" d="m48 45.483c0 1.39-5.373 2.517-12 2.517s-12-1.127-12-2.517 5.373-2.517 12-2.517 12 1.127 12 2.517z"/>
 <path id="path2262" style="stroke-linejoin:round;fill-rule:evenodd;stroke:url(#linearGradient2658);fill:url(#linearGradient2656)" d="m32.566 32.495v-5.995h6.934v5.995h6v7.005h-6v6h-6.94l-0.028-6h-6.032v-7.005h6.066z"/>
 <path id="path2272" style="opacity:.4;stroke:url(#linearGradient2653);fill:none" d="m33.5 33.495v-5.995h5v5.995h6v5.005h-6v6h-5v-6h-6v-5.005h6z"/>
</svg>
